X:1
T:Jock O' the Side
B:Journal of the English Folk Dance and Song Society, Dec 1936
S:From the Edinburgh Manuscripts (no 56). 
Z:Frank Kidson/Anne G Gilchrist
F:http://www.folkinfo.org/songs
M:6/8     %Meter
L:1/8     %
K:Am
E |E2 A A2 A |A2 A A2 
w:Now Lid-des-dale has ridden a raid, 
E |E2 A A2 A | G2 E D2
w:But I wat better had stayed at hame, 
 D |E2 A A2 A |B2 A B2
w:For Mich-eal o'Win-field he is dead, 
 d |B2 A A2 A | G2 E D2
w:And Jock o'the Side is prison-er ta'en
 (E/G/) |[M:5/8][L:1/16] A4 B B d2 e2 |[M:2/4][L:1/16] B3 A A4 |]
w: And_ Jock o' the Side is prison-er ta'en 